icon-svg/authentik.svg

<svg xmlns="http://www.w3.org/2000/svg" fill="#44739e" viewBox="0 0 24 24"><path d="M21.979 7.121a3.147 3.147 0 0 0-1.957-2.556l-.013-.006-.055-.02-.048-.018-.022-.008c-.048-.016-.1-.033-.147-.047s-.1-.027-.145-.039c-.024-.006-.047-.012-.072-.016a3.1 3.1 0 0 0-.426-.062H9.588q-.073.006-.147.015h-.017l-.073.011-.046.007-.047.008-.092.018h-.019a.5.5 0 0 0-.056.013h-.006l-.056.014L9 4.45c-.05.014-.1.028-.148.044h-.013l-.078.027-.017.007-.076.028h-.01a3.15 3.15 0 0 0-1.442 1.175 3.11 3.11 0 0 0-.516 1.39 3.1 3.1 0 0 0-.021.36v3.687a5 5 0 0 0-.09-.125 2.843 2.843 0 0 0-2.04-1.338 2.55 2.55 0 0 0 0 5.1c1.46 0 2.664-2.166 2.664-2.549a2.64 2.64 0 0 0-.448-.961h5.137V8.241h1.028v1.264h.7V8.241h1.12v.745h.7v-.745h1.324v5.435H6.683v2.842a3.144 3.144 0 0 0 3.141 3.141h1.333v-3.077h6.367v3.076h1.334A3.144 3.144 0 0 0 22 16.517V7.481a3.1 3.1 0 0 0-.021-.36M3.5 11.043a1.282 1.282 0 0 1 1.84 0 4.47 4.47 0 0 1 .911 1.207c-1.64 3.422-4.509.506-2.751-1.207"/></svg>

<?xml version="1.0" encoding="UTF-8"?>
<svg width="24px" fill="#44739e" height="24px" viewBox="0 0 24 24" version="1.1" xmlns="http://www.w3.org/2000/svg" xmlns:xlink="http://www.w3.org/1999/xlink">
            <path d="m 21.979,7.121 v 0 A 3.147,3.147 0 0 0 20.022,4.565 L 20.009,4.559 19.954,4.539 19.906,4.521 19.884,4.513 C 19.836,4.497 19.784,4.48 19.737,4.466 19.69,4.452 19.637,4.439 19.592,4.427 19.568,4.421 19.545,4.415 19.52,4.411 A 3.08,3.08 0 0 0 19.094,4.349 H 19.032 18.994 18.94 9.74 9.685 9.65 9.588 Q 9.515,4.355 9.441,4.364 H 9.424 L 9.351,4.375 9.305,4.382 9.258,4.39 9.166,4.408 H 9.161 9.147 A 0.507,0.507 0 0 0 9.091,4.421 H 9.085 L 9.029,4.435 9,4.45 C 8.95,4.464 8.9,4.478 8.852,4.494 H 8.839 L 8.761,4.521 8.744,4.528 8.668,4.556 H 8.658 A 3.148,3.148 0 0 0 7.216,5.731 3.108,3.108 0 0 0 6.7,7.121 v 0 a 3.1,3.1 0 0 0 -0.021,0.36 v 3.687 C 6.65,11.126 6.62,11.085 6.589,11.043 v 0 a 2.843,2.843 0 0 0 -2.04,-1.338 2.55,2.55 0 0 0 0,5.1 c 1.46,0 2.664,-2.166 2.664,-2.549 A 2.64,2.64 0 0 0 6.765,11.295 h 5.137 V 8.241 h 1.028 v 1.264 h 0.7 V 8.241 h 1.12 v 0.745 h 0.7 V 8.241 h 1.324 v 5.435 H 6.683 v 2.842 a 3.144,3.144 0 0 0 3.141,3.141 h 1.333 v -3.077 h 6.367 v 3.076 h 1.334 A 3.144,3.144 0 0 0 22,16.517 v -5.225 0 -3.811 A 3.1,3.1 0 0 0 21.979,7.121 Z M 3.5,11.043 a 1.282,1.282 0 0 1 1.84,0 v 0 A 4.467,4.467 0 0 1 6.251,12.25 C 4.611,15.672 1.742,12.756 3.5,11.043 Z"/>

</svg>
